X:706
T:Mrs Pomeroy's Pavane
C:Charles Bolton, 1986
M:2/2
R:Reel
S:Colin Hume's website,  colinhume.com  - chords can also be printed below the stave.
Q:1/2=95 - Lyrical, but not too slow
%%stretchstaff 0
M:2/2
L:1/4
K:Gm
P:Intro
e | "Bb"d/c/B "D7"cA | "Gm"G3 ||
P:A
|: d | "Gm"cB AG | "/"B/c/d Gc | "Gm"BA/B/ GA/B/ | "Eb"c/d/ e2 c |\
"F"AG/A/ FG/A/ | "Bb"B/c/d-"Gm"dB | "Cm"A/B/c "D7"BA | "Gm"G3 :|
P:B
d | "G7"c=B _AG | "Cm"c/d/e/f/ ge | "Fm"d/e/f "G7"ed | "Cm"e/d/c- cG |\
"Cm"cd eB | "F"AG/F/ "Bb"Bd | "Eb"G/A/B "F7"FA | "Bb"B3f |
P:C
"Bb"ba "Eb"gf | "Bb"dc/d/ BF | "Gm"Bc dg | "D"^f/=e/d- dc/d/ |\
"Eb"ed cB | "Cm"AG "D"^F"(Eb)"e | "Bb"d/c/B "D7"cA | "Gm"G3 |]

